!!!!SEGMENT: pl-sa--481-a-viii-121--047_anonim--ariette.krn
!!!cenid: 18xx:418
!!!COM: Anonim
!!!COM-rismID: pe30004985
!!!CDT:
!!!CNT:
!!!OTL: Ariette
!!!PDT:
!!!AGN: Secular
!!!SMS-siglum: PL-SA
!!!SMS-shelfmark: 481/A VIII 121
!!!SMS-shelfwork: 047 W
!!!SMS-variant:
!!!SMS-altvar:
!!!NIFC-rismSourceID: 1001071902
!!!NIFC-rismChildID: 1001071902
!!!NIFC-islandoraID: none
!!!URL-pdf-islandora:
!!!URL-scan: https://bc.bdsandomierz.pl/dlibra/publication/1212/edition/1171/content @EN{Scan in the Sandomierz Diocese Digital Library} @PL{Skany w portalu Cyfrowa Biblioteka Diecezjalna w Sandomierzu}
!!!ONB-nifc: Str. 33, s. 2-4
!!!AIN: 1 empty
!!!key:
**kern	**kern
*part1	*part1
*staff2	*staff1
*Iempty	*Iempty
*I"	*I"
*clefF4	*clefG2
*k[f#c#]	*k[f#c#]
*D:	*D:
*M2/4	*M2/4
* [A,A1,A,A2,B]	*[A,A1,A,A2]
*>A	*>A
=1	=1
!	!LO:TX:a:t=P:problem=oznaczenie metrum jedno, pomiędzy systemami
!	!LO:TX:a:i:t=Argietto
8D\L	4dd\
8A\	.
8F#\	8dd\L
8A\J	8ff#\J
=2	=2
*rep	*
8D\L	4aa\
8A\	.
8F#\	4aa\
8A\J	.
*Xrep	*
=3	=3
8C#\L	4ee\
8A\	.
.	16qqff#/LL
.	16qqee/
.	16qqdd#X/JJ
8E\	8.ee\L
8A\J	.
.	16ff#\Jk
=4	=4
8AA/L	4.gg\
8C#/	.
8E/	.
8G/J	8ee\
=5	=5
8BB\L	4dd\
8F#\	.
8D\	8dd\L
8F#\J	8ff#\J
=6	=6
8GG\L	4ee\
8E\	.
8BB\	8ee\L
8E\J	8gg\J
=7	=7
.	8qdd/
8AA\L	8cc#\L
8G\	16r
.	16b\Jk
8E\	8cc#\L
8G\J	16r
.	16dd\Jk
=8	=8
4F# 4D\	4dd\
4r	4r
=9:|!|:	=9:|!|:
8c#\L	4ee\
8E\J	.
*rep	*
8c#\L	4ee\
8E\J	.
*Xrep	*
=10	=10
8c#\L	4.ee\
8E\	.
8A\	.
8E\J	8cc#\
=11	=11
8G\L	8b\L
8E\J	16r
.	16cc#\Jk
*rep	*
8G\L	8dd\L
8E\J	16r
.	16ee\Jk
*Xrep	*
=12	=12
8B\L	4dd\
8E\	.
8A\	8cc#\
8E\J	8r
=13	=13
8c#\L	4ee\
8A\J	.
*rep	*
8c#\L	4ee\
8A\J	.
*Xrep	*
=14	=14
8d\L	8ff#\L
8B\	8gg#X\
8c#\	8aa\
8d\J	16r
.	16bb\Jk
=15	=15
8e\L	4ccc#\
8E\	.
8d\	8.bb\L
8E\J	.
.	16ccc#\Jk
=16	=16
4c# 4A;\	4aa;\
*	*Xtuplet
4r;	12gg#X\L
.	12ggn\
.	12ee\J
!!LO:LB:g=original
=17	=17
8D\L	4dd\
8A\	.
8F#\	8dd\L
8A\J	8ff#\J
=18	=18
*rep	*
8D\L	4aa\
8A\	.
8F#\	4aa\
8A\J	.
*Xrep	*
=19	=19
8C#\L	4ee\
8A\	.
8E\	8.ee\L
8A\J	.
.	16ff#\Jk
=20	=20
8AA\L	4.gg\
8C#\	.
8E\	.
8G\J	8ee\
=21	=21
8BB\L	4dd\
8F#\	.
8D\	8dd\L
8F#\J	8ff#\J
=22	=22
8GG\L	4ee\
8E\	.
8BB\	8ee\L
8E\J	8ff#\J
=23	=23
.	8qdd/
8AA\L	8cc#\L
8G\	16r
.	16b\Jk
8E\	8cc#\L
8G\J	16r
.	16dd\Jk
=24	=24
*>A1	*>A1
4F# 4D\	4dd\
4r	4r
=25:|!	=25:|!
*>A2	*>A2
4F# 4D\	4dd\
4ryy	4r
=26||	=26||
* [B]	* [B]
*>B	*>B
*M2/4	*M2/4
8r	8aa\
=27	=27
!	!LO:SIC:S=tu powinien być klucz wiolinowy
4C# 4AA/	12ddd\L
.	12aa\
.	12ddd\J
4BB 4GG/	12ccc#\L
.	12aa\
.	12ccc#\J
=28	=28
4AA 4FF#/	12ddd\L
.	12aa\
.	12ff#\J
4r	12dd\L
.	12ff#\
.	12aa\J
=29	=29
4C# 4AA/	12ddd\L
.	12aa\
.	12ddd\J
4BB 4GG/	12ccc#\L
.	12aa\
.	12ccc#\J
=30	=30
4AA 4FF#/	12ddd\L
.	12aa\
.	12ff#\J
4r	12dd\L
.	12ff#\
.	12aa\J
=31	=31
*clefF3	*
4f# 4F#\	12ddd\L
.	12aa\
.	12ff#\J
4f# 4B 4F#\	12ddd\L
.	12bb\
.	12gg#X\J
!!LO:LB:g=original
*clefF4	*
=32	=32
4c# 4A\	12ccc#\L
.	12aa\
.	12ee\J
4r	12aa\L
.	12ee\
.	12cc#\J
=33	=33
4d 4D\	12b/L
.	12cc#/
.	12dd/J
4d 4G 4D\	12e/L
.	12f#/
.	12g#X/J
=34	=34
4c# 4A\	4a/
4r	4r
=35:|!|:	=35:|!|:
8r	8a\
=36	=36
*^	*
*2\right	*2\right	*
!LO:N:vis=2	!	!
4d/	2G\	12aa\L
.	.	12ff#\
.	.	12dd#X\J
4d#X/	.	12b\L
.	.	12ff# 12dd#\
.	.	12aa\J
=37	=37	=37
4e/	4A\	12gg\L
.	.	12bb\
.	.	12gg\J
4rcyy	4r	12ee\L
.	.	12gg\
.	.	12ee\J
=38	=38	=38
!LO:N:vis=2	!	!
4f#/	2A\	12gg/L
.	.	12ee/
.	.	12cc#/J
4c#/	.	12a\L
.	.	12ee\
.	.	12gg\J
*v	*v	*
=39	=39
4d 4A\	12ff#\L
.	12aa\
.	12ff#\J
4d#X 4F#\	12dd\L
.	12ddd\
.	12ccc#\J
=40	=40
2d 2G\	12cccn\L
.	12bbn\
.	12bb-X\J
.	12aa\L
.	12gg#X\
.	12ggn\J
=41	=41
4r	12ff#\L
.	12ee\
.	12dd#X\J
4B 4G\	12ee\L
.	12gg\
.	12bb\J
=42	=42
*Xtuplet	*
12r	2dd 2f#/
12A\L	.
12G#X\J	.
12A\L	.
12G#\	.
12A\J	.
=43	=43
4AA/	8cc# 8e/
.	8r
4r	12aa\L
.	12bb\
.	12ccc#\J
*clefG2	*
=44	=44
4a 4f#/	12ddd\L
.	12aa\
.	12ddd\J
4g 4e/	12ccc#\L
.	12aa\
.	12ccc#\J
=45	=45
4f# 4d/	12ddd\L
.	12aa 12ff#\
.	12ff#\J
4r	12dd\L
.	12ff#\
.	12aa\J
=46	=46
!	!LO:TX:a:t=P:problem=w źródle t. 46-47 zapisane jako repetycja t. 44-45
4a 4f#/	12ddd\L
.	12aa\
.	12ddd\J
4g 4e/	12ccc#\L
.	12aa\
.	12ccc#\J
=47	=47
4f# 4d/	12ddd\L
.	12aa 12ff#\
.	12ff#\J
!	!LO:TX:a:t=P:problem=odsyłacz "Vi", do umieszczonych w prawym górnym rogu strony ostatnich 4 taktów utworu, nad którymi wpisano "de"
4r	12dd\L
.	12ff#\
.	12aa\J
!!LO:PB:g=original
*clefF4	*
=48	=48
4d 4G\	12bb\L
.	12gg\
.	12bb\J
4e 4G\	12ccc#\L
.	12aa\
.	12ccc#\J
=49	=49
4d 4F#\	12ddd\L
.	12ccc#\
.	12bb\J
4r	12aa\L
.	12gg\
.	12ff#\J
=50	=50
4g 4G\	12ee/L
.	12ff#/
.	12gg/J
4g 4A\	12a\L
.	12b\
.	12cc#\J
=51	=51
4f# 4d\	4dd\
4r	4r
=:|!;;	=:|!;;
*-	*-
!!!system-decoration: {(s1,s2)}
!!!EED: Antoni Szymański
!!!EEV: 2020-11-23
!!!ENC: Mateusz Solarz
!!!END: 2020-06-15
!!!YEC: Copyright 2022 Narodowy Instytut Fryderyka Chopina (https://polishscores.org)
!!!YEM: License CC-BY-4.0 (https://creativecommons.org/licenses/by/4.0)
